X:1
T:Phrygian Mode (D minor) Jeremiah Ingalls, 1805
T:Anonymous Author, before 1794                      88. 88. (L. M.)
T:Experience
T:Transcribed from Ingalls' Christian Harmony, 1805.
%%score [ 1 2 3 ]
L:1/8
Q:1/4=120
M:4/4
K:F
V:1 treble nm="Tr." snm="Tr."
V:2 treble-8 nm="T." snm="T."
V:3 bass nm="B." snm="B."
V:1
"^1. Come all ye saints and sinners near,  Come list'n  a     while   and    you    shall    hear   The  wonders  of  almighty  grace,    Which  set  me\n2. Mine eyes  he  o–pened to be–hold   The  wonders     I          have    ne  –  ver     told;   Hea–ven and  hell  I thought I saw,    And  my poor" A4 | %1
 F2 A2 A2 d2 | c2 c2 c4 | e4 d2 d2 | A2 de fe dc | d4 A4 | F2 A2 A2 d2 | c2 c2 c4 | e4 d2 d2 | %9
"^1. free      to      sing     his     praise.  Our  glo–rious   Je – sus,   from the sky,      He   said  to         me     as      he      passed   by,    A–wake,  a  –\n2. soul      in       ru   –   in       lay.        I      heard   of   Je – sus    who they say  Could  wash  a       sin – ner's   sins     a   –   way;    How  to  find" A2 de fe dc | %10
 d6 A2 | c3 A G3 A | B3 G c4 | e4 d2 d2 | A2 d2 ed cB | A2 c2 d2 d2 | %16
"^1. –rise,  de –  part    and        fly,     Go    hence,   or       you      will      sure  –   ly       die.\n2. him     I        did     not   know,     Nor    how     to       meet    with     him      be –  low." A2 d2 ed cB | %17
 A2 c2 d2 d2 | c2 A2 F2 A2 | d8 |] %20
V:2
"^3. My flesh did war against my soul,  Temp–ta–tion     did    me   much  con – trol;  The weeping saints I could not slight,  Who sought their\n4.  I     laid me down to take my rest,   Be–moa–ning     of     my   dread –ful     case;    I  thought  I  would  for  mercy wait    But  then    I" A4 | %1
 A2 d2 d2 f2 | e2 c2 A4 | c4 B2 AG | FG A2 dc d2 | A4 A4 | A2 d2 d2 f2 | e2 c2 A4 | c4 B2 AG | %9
"^3. Je   –  sus      day    and     night.  The  scan–dal    of    his    cross    I    see,     That   scan–dal     it    would   fall     on      me;     But   still     I \n4. feared  I'd    come  too       late.     I   lit–tle thought he'd    been  so  nigh,      His   spea–king  made  me   smile  and     cry:     He   said,   I'm" FG A2 dc d2 | %10
 A6 f2 | a3 f d3 f | e3 c A4 | c4 B2 AG | FG A2 gf ed | c2 Ac B2 AG | %16
"^3. thought   I   did      be  –  hold        I       wan  –  ted      Je   –   sus       more   than    gold.\n4. come    to    you     my     love,       I       have     a          place    for       you      a   –  bove." FG A2 gf ed | %17
 c2 Ac B2 AG | FG A2 dc d2 | A8 |] %20
V:3
"^5. This  glorious  news  I did believe,  My   sins  and      sor  – rows   did      me    leave;  My  soul  enraptured  in  his  love,     In   hopes   to" D,4 | %1
 D,2 D,2 D,2 D,2 | A,2 A,2 F,4 | C,4 D,2 D,E, | F,E, D,C, D,2 D,2 | D,4 D,4 | D,2 D,2 D,2 D,2 | %7
 A,2 A,2 F,4 | C,4 D,2 D,E, | %9
"^5.  go     with   him     a   –    bove,  There  for   to   set   and    sing  and  tell      The  won–ders     of     Im  – ma  –  nu    –  el,   While  we  shall" F,E, D,C, D,2 D,2 | %10
 D,6 D,2 | F,3 F, G,3 F, | E,3 E, F,4 | C,4 D,2 D,E, | F,E, D,2 G,2 G,2 | A,2 A,2 D,2 D,E, | %16
"^_________________________________________________\n\"In interpreting it as a phrygian tune I have assumed that the b-flats and c-naturals are organic\n   and that the b-naturals and c-sharps are not\" (Jackson 1953b, no. 29). As Jackson suggested,\n   edited to change b-natural to b-flat and c-sharp to c-natural (B. C. Johnston, 2017).""^5.  join    in    songs    di   –  vine      To    praise   him       all         his     saints   com – bine." F,E, D,2 G,2 G,2 | %17
 A,2 A,2 D,2 D,E, | F,E, D,C, D,2 D,2 | D,8 |] %20

